logos/stackbit-icon.svg

<?xml version="1.0" encoding="UTF-8"?>
<svg width="256px" height="257px" viewBox="0 0 256 257" version="1.1" xmlns="http://www.w3.org/2000/svg" preserveAspectRatio="xMidYMid">
    <title>Stackbit</title>
    <g>
        <path d="M177.246486,78.768379 L238.609459,109.739492 C243.830986,112.354738 248.223157,116.370454 251.295199,121.338573 C253.927366,125.595748 255.500368,130.409374 255.899051,135.376043 L256,137.870264 L256,208.769072 C256,221.301445 251.022679,233.319452 242.162835,242.182835 C233.935837,250.412024 222.986746,255.294545 211.430445,255.953841 L208.75379,256.030618 L0.158466803,256.030618 L78.8400441,177.247611 L177.246486,177.247611 L177.246486,78.768379 Z M255.856072,2.48689958e-13 L177.247665,78.7686149 L78.8411059,78.7686149 L78.8411059,177.247611 L17.3189856,146.363209 C12.1103174,143.734749 7.73338929,139.711837 4.67564592,134.741594 C2.05472304,130.482397 0.491682725,125.671949 0.0985880009,120.709944 L-2.7000624e-13,118.218162 L-2.7000624e-13,47.3336286 C-0.00941501996,41.12112 1.20600829,34.9675985 3.5768365,29.2253342 C5.94766471,23.4829519 9.42736553,18.2643739 13.8169287,13.8680745 C18.2065036,9.471775 23.4197727,5.98407555 29.1584979,3.60445827 C33.9407688,1.62143405 39.0097,0.440354176 44.1617046,0.101744891 L47.2612475,2.48689958e-13 L255.856072,2.48689958e-13 Z" fill="#FF364E"></path>
    </g>
</svg>

<svg preserveAspectRatio="xMidYMid" viewBox="0 0 256 257" xmlns="http://www.w3.org/2000/svg">
  <path fill="#FF364E" d="m177.246 78.768 61.363 30.971a31.484 31.484 0 0 1 17.29 25.637l.101 2.494v70.9a47.263 47.263 0 0 1-44.57 47.184l-2.676.077H.158l78.682-78.783h98.406v-98.48ZM255.856 0l-78.608 78.769H78.84v98.479l-61.52-30.885A31.513 31.513 0 0 1 .099 120.71L0 118.218V47.334A47.263 47.263 0 0 1 44.162.102l3.1-.102h208.594Z"/>
</svg>
